X: 482
T:The Piper on Horseback
C:Traditional
S:Bernie Stocks, Belfast
M:C
L:1/8
Q:350
R:reel
Z:Gordon Turnbull
N:Posted to the woodenflute mailing list January 2002
K:Amix
[EA][F2A] d cAAB | cAdB cAGE | ~A3 d cAAB  | cAGE EDCE :||
K:D
defg afdf | efed cAEA | defg afdB | (3.A.A.A GE EDDA |
defg gaaf | efed cAAe | a z ag efed | cAGE EDCE |]

